Sources/FrostedUI/Resources/Icons.xcassets/burger12.imageset/burger-12.svg

<svg width="12" height="12" viewBox="0 0 12 12" fill="none" xmlns="http://www.w3.org/2000/svg" data-fui-icon="true">
  <g clip-path="url(#clip0_1122_195)">
    <path
      d="M9.7373 8.05176C10.5727 8.05177 11.25 8.72902 11.25 9.56445C11.25 10.8514 10.2003 11.793 8.97461 11.793H3.02539C1.79972 11.793 0.750027 10.8514 0.75 9.56445C0.75 8.72902 1.42726 8.05177 2.2627 8.05176H9.7373ZM2.25781 9.55273C2.25682 9.5532 2.25544 9.55413 2.25391 9.55566C2.25235 9.55723 2.25143 9.55859 2.25098 9.55957C2.25077 9.56005 2.25 9.56132 2.25 9.56445C2.25003 9.96236 2.56619 10.293 3.02539 10.293H8.97461C9.43381 10.293 9.74997 9.96236 9.75 9.56445C9.75 9.56132 9.74923 9.56005 9.74902 9.55957C9.74857 9.55859 9.74765 9.55723 9.74609 9.55566C9.74456 9.55413 9.74318 9.5532 9.74219 9.55273C9.74171 9.55253 9.74042 9.55176 9.7373 9.55176H2.2627C2.25958 9.55176 2.25829 9.55253 2.25781 9.55273ZM10.25 5.84375C10.6642 5.84375 11 6.17954 11 6.59375C11 7.00796 10.6642 7.34375 10.25 7.34375H1.75C1.33579 7.34375 1 7.00796 1 6.59375C1 6.17954 1.33579 5.84375 1.75 5.84375H10.25ZM8.21191 0.335938C9.8898 0.335965 11.25 1.69613 11.25 3.37402C11.25 3.77603 11.0922 4.16153 10.8535 4.44922C10.6145 4.73716 10.2286 4.99999 9.7373 5H2.2627C1.77144 4.99999 1.38554 4.73716 1.14648 4.44922C0.907764 4.16153 0.75 3.77603 0.75 3.37402C0.750008 1.69613 2.1102 0.335964 3.78809 0.335938H8.21191ZM3.78809 1.83594C2.93863 1.83596 2.25001 2.52456 2.25 3.37402C2.25 3.37942 2.25189 3.39692 2.26172 3.42285C2.27146 3.44852 2.28554 3.47284 2.30078 3.49121C2.30379 3.49482 2.30708 3.4974 2.30957 3.5H9.69043C9.69292 3.4974 9.69621 3.49482 9.69922 3.49121C9.71446 3.47284 9.72854 3.44852 9.73828 3.42285C9.74811 3.39692 9.75 3.37942 9.75 3.37402C9.74999 2.52456 9.06137 1.83596 8.21191 1.83594H3.78809Z"
      fill="currentColor"
    />
  </g>
  <defs>
    <clipPath id="clip0_1122_195"><path fill="currentColor" d="M0 0H12V12H0z" /></clipPath>
  </defs>
</svg>

<svg xmlns="http://www.w3.org/2000/svg" width="12" height="12" fill="none" data-fui-icon="true" viewBox="0 0 12 12"><g clip-path="url(#a)"><path fill="currentColor" d="M9.737 8.052c.836 0 1.513.677 1.513 1.512 0 1.287-1.05 2.229-2.275 2.229h-5.95C1.8 11.793.75 10.851.75 9.564c0-.835.677-1.512 1.513-1.512zm-7.48 1.5-.003.004-.003.004-.001.004c0 .398.316.729.775.729h5.95c.459 0 .775-.33.775-.729l-.001-.004-.003-.004-.004-.003-.005-.001H2.258m7.993-3.708a.75.75 0 0 1 0 1.5h-8.5a.75.75 0 0 1 0-1.5zM8.212.336a3.04 3.04 0 0 1 3.038 3.038c0 .402-.158.788-.396 1.075-.24.288-.625.551-1.117.551H2.263c-.492 0-.877-.263-1.117-.55A1.7 1.7 0 0 1 .75 3.373 3.04 3.04 0 0 1 3.788.336zm-4.424 1.5c-.85 0-1.538.689-1.538 1.538q-.002.009.012.049.016.04.039.068l.009.009h7.38l.01-.009a.25.25 0 0 0 .05-.117c0-.85-.689-1.538-1.538-1.538z"/></g><defs><clipPath id="a"><path fill="currentColor" d="M0 0h12v12H0z"/></clipPath></defs></svg>
